src/images/footer/In_mob.svg

<svg width="34" height="31" viewBox="0 0 34 31" fill="none" xmlns="http://www.w3.org/2000/svg">
<path d="M29.6924 0.246094C30.6514 0.246094 31.5711 0.597283 32.2491 1.2224C32.9272 1.84753 33.3082 2.69537 33.3082 3.57943V26.9128C33.3082 27.7968 32.9272 28.6447 32.2491 29.2698C31.5711 29.8949 30.6514 30.2461 29.6924 30.2461H4.38233C3.42338 30.2461 2.5037 29.8949 1.82562 29.2698C1.14754 28.6447 0.766602 27.7968 0.766602 26.9128V3.57943C0.766602 2.69537 1.14754 1.84753 1.82562 1.2224C2.5037 0.597283 3.42338 0.246094 4.38233 0.246094H29.6924ZM28.7885 26.0794V17.2461C28.7885 15.8051 28.1676 14.4231 27.0623 13.4041C25.957 12.3852 24.4579 11.8128 22.8949 11.8128C21.3582 11.8128 19.5684 12.6794 18.7006 13.9794V12.1294H13.6567V26.0794H18.7006V17.8628C18.7006 16.5794 19.8215 15.5294 21.2135 15.5294C21.8848 15.5294 22.5286 15.7753 23.0032 16.2128C23.4779 16.6504 23.7446 17.2439 23.7446 17.8628V26.0794H28.7885ZM7.78111 9.51276C8.58663 9.51276 9.35916 9.21776 9.92875 8.69266C10.4983 8.16756 10.8183 7.45537 10.8183 6.71276C10.8183 5.16276 9.46243 3.89609 7.78111 3.89609C6.9708 3.89609 6.19368 4.19285 5.6207 4.72108C5.04772 5.2493 4.72582 5.96573 4.72582 6.71276C4.72582 8.26276 6.0998 9.51276 7.78111 9.51276ZM10.294 26.0794V12.1294H5.28626V26.0794H10.294Z" fill="#3A4551"/>
</svg>

<svg width="34" height="31" fill="none" xmlns="http://www.w3.org/2000/svg"><path d="M29.692.246c.96 0 1.88.351 2.557.976.678.626 1.06 1.473 1.06 2.357v23.334c0 .884-.382 1.732-1.06 2.357a3.777 3.777 0 0 1-2.557.976H4.382a3.777 3.777 0 0 1-2.556-.976c-.678-.625-1.06-1.473-1.06-2.357V3.579c0-.884.382-1.731 1.06-2.357A3.777 3.777 0 0 1 4.382.246h25.31Zm-.904 25.833v-8.833c0-1.44-.62-2.823-1.726-3.842-1.105-1.019-2.604-1.591-4.167-1.591-1.537 0-3.327.866-4.194 2.166v-1.85h-5.044v13.95H18.7v-8.216c0-1.284 1.12-2.334 2.512-2.334.672 0 1.316.246 1.79.684.475.437.742 1.03.742 1.65v8.216h5.043ZM7.781 9.513c.806 0 1.578-.295 2.148-.82.57-.525.89-1.238.89-1.98 0-1.55-1.357-2.817-3.038-2.817-.81 0-1.587.297-2.16.825a2.71 2.71 0 0 0-.895 1.992c0 1.55 1.374 2.8 3.055 2.8Zm2.513 16.566V12.13H5.286v13.95h5.008Z" fill="#3A4551"/></svg>
